assets/sonr-icons/error-server.svg

<svg xmlns="http://www.w3.org/2000/svg" width="24" height="24" fill="none" viewBox="0 0 24 24"><path fill="#000" d="M12 3.00002C11.274 3.00002 10.627 3.46102 10.392 4.14702L8.952 8.33602C8.84 8.66102 9.082 8.99802 9.425 8.99802H14.576C14.919 8.99802 15.16 8.66002 15.048 8.33602L13.608 4.14602C13.372 3.45902 12.726 3.00002 12 3.00002ZM7.705 14C7.361 14 7.121 13.662 7.232 13.338L7.92 11.338C7.99 11.136 8.18 11.001 8.393 11.001H15.607C15.821 11.001 16.01 11.137 16.08 11.338L16.768 13.338C16.88 13.663 16.638 14 16.295 14H7.705ZM6.674 16C6.46 16 6.271 16.136 6.201 16.337L5.286 19H4C3.448 19 3 19.448 3 20C3 20.552 3.448 21 4 21H20C20.552 21 21 20.552 21 20C21 19.448 20.552 19 20 19H18.714L17.799 16.337C17.729 16.135 17.54 16 17.326 16H6.674Z"/></svg>

<svg xmlns="http://www.w3.org/2000/svg" width="24" height="24" fill="none"><path fill="currentColor" d="M12 3a1.7 1.7 0 0 0-1.608 1.147l-1.44 4.189a.5.5 0 0 0 .473.662h5.151a.5.5 0 0 0 .472-.662l-1.44-4.19A1.7 1.7 0 0 0 12 3M7.705 14a.5.5 0 0 1-.473-.662l.688-2a.5.5 0 0 1 .473-.337h7.214c.214 0 .403.136.473.337l.688 2a.5.5 0 0 1-.473.662zm-1.031 2a.5.5 0 0 0-.473.337L5.286 19H4a1 1 0 0 0 0 2h16a1 1 0 0 0 0-2h-1.286l-.915-2.663a.5.5 0 0 0-.473-.337z"/></svg>
